resources/icons/20px/refresh.svg

<svg width="20" height="20" viewBox="0 0 20 20" fill="none" xmlns="http://www.w3.org/2000/svg">
<path d="M3.63604 3.63604C5.32387 1.94821 7.61305 1 10 1C12.4387 1 15.182 1.71673 17 3.47126V2C17 1.44772 17.4477 1 18 1C18.5523 1 19 1.44772 19 2V6C19 6.55228 18.5523 7 18 7H14C13.4477 7 13 6.55228 13 6C13 5.44772 13.4477 5 14 5H15.6999C14.3963 3.67996 12.2174 3 10 3C8.14349 3 6.36301 3.7375 5.05025 5.05025C3.7375 6.36301 3 8.14348 3 10C3 10.5523 2.55228 11 2 11C1.44772 11 1 10.5523 1 10C1 7.61305 1.94821 5.32386 3.63604 3.63604Z" fill="black"/>
<path d="M16.364 16.364C14.6761 18.0518 12.3869 19 10 19C7.56132 19 4.81802 18.2833 3 16.5287V18C3 18.5523 2.55228 19 2 19C1.44772 19 1 18.5523 1 18V14C1 13.4477 1.44772 13 2 13H6C6.55229 13 7 13.4477 7 14C7 14.5523 6.55229 15 6 15H4.30006C5.60368 16.32 7.78259 17 10 17C11.8565 17 13.637 16.2625 14.9497 14.9497C16.2625 13.637 17 11.8565 17 10C17 9.44772 17.4477 9 18 9C18.5523 9 19 9.44772 19 10C19 12.387 18.0518 14.6761 16.364 16.364Z" fill="black"/>
</svg>

<svg xmlns="http://www.w3.org/2000/svg" viewBox="0 0 20 20">
  <path d="M3.636 3.636A9 9 0 0 1 10 1c2.439 0 5.182.717 7 2.471V2a1 1 0 1 1 2 0v4a1 1 0 0 1-1 1h-4a1 1 0 1 1 0-2h1.7c-1.304-1.32-3.483-2-5.7-2a7 7 0 0 0-7 7 1 1 0 1 1-2 0 9 9 0 0 1 2.636-6.364M16.364 16.364A9 9 0 0 1 10 19c-2.439 0-5.182-.717-7-2.471V18a1 1 0 1 1-2 0v-4a1 1 0 0 1 1-1h4a1 1 0 1 1 0 2H4.3c1.304 1.32 3.483 2 5.7 2a7 7 0 0 0 7-7 1 1 0 1 1 2 0 9 9 0 0 1-2.636 6.364"/>
</svg>
